SVG_Azure_Grouped/IoT/IoT Hub Update.svg

<?xml version="1.0" encoding="UTF-8" standalone="no"?>
<!-- Generated by Microsoft Visio, SVG Export IoT Hub Update.svg Page-1 -->

<svg
   xmlns:dc="http://purl.org/dc/elements/1.1/"
   xmlns:cc="http://creativecommons.org/ns#"
   xmlns:rdf="http://www.w3.org/1999/02/22-rdf-syntax-ns#"
   xmlns:svg="http://www.w3.org/2000/svg"
   xmlns="http://www.w3.org/2000/svg"
   xmlns:sodipodi="http://sodipodi.sourceforge.net/DTD/sodipodi-0.dtd"
   xmlns:inkscape="http://www.inkscape.org/namespaces/inkscape"
   width="0.70448256in"
   height="0.78890032in"
   viewBox="0 0 50.72264 56.800914"
   xml:space="preserve"
   class="st5"
   version="1.1"
   id="svg43"
   sodipodi:docname="IoT Hub Update.svg"
   style="font-size:12px;overflow:visible;color-interpolation-filters:sRGB;fill:none;fill-rule:evenodd;stroke-linecap:square;stroke-miterlimit:3"
   inkscape:version="0.92.5 (2060ec1f9f, 2020-04-08)"><metadata
   id="metadata47"><rdf:RDF><cc:Work
       rdf:about=""><dc:format>image/svg+xml</dc:format><dc:type
         rdf:resource="http://purl.org/dc/dcmitype/StillImage" /></cc:Work></rdf:RDF></metadata><sodipodi:namedview
   pagecolor="#ffffff"
   bordercolor="#666666"
   borderopacity="1"
   objecttolerance="10"
   gridtolerance="10"
   guidetolerance="10"
   inkscape:pageopacity="0"
   inkscape:pageshadow="2"
   inkscape:window-width="640"
   inkscape:window-height="480"
   id="namedview45"
   showgrid="false"
   inkscape:zoom="1.4182147"
   inkscape:cx="33.815778"
   inkscape:cy="37.861953"
   inkscape:window-x="0"
   inkscape:window-y="0"
   inkscape:window-maximized="0"
   inkscape:current-layer="svg43" />
	<style
   type="text/css"
   id="style2">
	<![CDATA[
		.st1 {fill:url(#grad0-6);stroke:none;stroke-linecap:butt;stroke-width:34}
		.st2 {fill:#ffffff;fill-opacity:0.48;stroke:none;stroke-linecap:butt;stroke-width:34}
		.st3 {fill:#ffffff;fill-opacity:0.8;stroke:none;stroke-linecap:butt;stroke-width:34}
		.st4 {fill:#0078d4;stroke:none;stroke-linecap:butt;stroke-width:34}
		.st5 {fill:none;fill-rule:evenodd;font-size:12px;overflow:visible;stroke-linecap:square;stroke-miterlimit:3}
	]]>
	</style>

	<defs
   id="Patterns_And_Gradients">
		<linearGradient
   id="grad0-6"
   x1="-0.00010906148"
   y1="87.83881"
   x2="38.048581"
   y2="87.83881"
   gradientTransform="scale(1.0087139,0.99136134)"
   gradientUnits="userSpaceOnUse">
			<stop
   offset="0"
   stop-color="#50e6ff"
   stop-opacity="1"
   id="stop4" />
			<stop
   offset="0.95"
   stop-color="#32bedd"
   stop-opacity="1"
   id="stop6" />
		</linearGradient>
	</defs>
	<g
   id="g41"
   transform="translate(-33.999343,-33.998097)">
		<title
   id="title10">Page-1</title>
		<g
   id="group20509-1"
   transform="translate(35.2663,-34.0568)">
			<title
   id="title12">IoT Hub Update.20509</title>
			<g
   id="group20510-2">
				<title
   id="title14">Sheet.20510</title>
				<g
   id="shape20511-3"
   transform="translate(4.91206,-9.40832)">
					<title
   id="title16">Sheet.20511</title>
					<path
   d="m 38.38,105.93 v 0.49 a 19.2017,18.864 0 0 1 -19.2,18.38 h -0.2 l -2.75,-4.59 a 2.79817,2.74896 -180 0 0 -2.44,-1.37 2.82709,2.77736 -180 0 0 -2.64,1.75 l -0.84,2.07 C 9.99,122.49 9.67,122.31 9.35,122.13 L 9.06,121.96 A 5.52246,5.42533 0 0 1 8.67,121.72 L 8.3,121.48 8.05,121.3 7.79,121.11 7.64,121 7.21,120.68 A 12.33,12.1131 0 0 1 6.77,120.33 L 6.4,120.01 A 0.202394,0.198834 0 0 1 6.3293228,119.92794 14.0519,13.8048 0 0 1 5.62,119.27 L 5.25,118.9 A 0.26022,0.255644 0 0 1 5.1985984,118.8495 11.5654,11.3619 0 0 1 4.56,118.13 C 4.44,118 4.33,117.86 4.23,117.73 4.14,117.6 4.01,117.46 3.91,117.32 3.81,117.18 3.7,117.05 3.59,116.91 3.48,116.78 3.39,116.63 3.27,116.48 3.15,116.33 3.08,116.19 2.98,116.04 a 2.69537,2.64796 0 0 1 -0.16,-0.25 7.92869,7.78924 0 0 1 -0.5,-0.86 C 2.24,114.8 2.17,114.66 2.09,114.52 a 12.8375,12.6118 0 0 1 -0.39,-0.8 c -0.06,-0.15 -0.13,-0.29 -0.2,-0.44 -0.06,-0.16 -0.14,-0.32 -0.2,-0.49 -0.06,-0.16 -0.13,-0.31 -0.18,-0.48 -0.05,-0.16 -0.1,-0.25 -0.14,-0.39 -0.04,-0.13 -0.07,-0.19 -0.1,-0.29 -0.03,-0.1 -0.07,-0.23 -0.1,-0.34 A 10.6915,10.5035 0 0 1 0.63,110.78 L 0.49,110.26 A 15.806,15.528 0 0 1 0.38,109.74 19.1599,18.8229 0 0 1 0.02,107.08 C 0.02,106.93 0,106.76 0,106.62 v -0.69 a 19.131,18.7945 0 0 1 0.23,-2.97 c 0.03,-0.23 0.08,-0.47 0.12,-0.71 0.05,-0.24 0.09,-0.38 0.13,-0.57 a 2.07213,2.03568 0 0 1 0.07,-0.27 c 0.04,-0.19 0.09,-0.39 0.15,-0.59 v -0.05 c 0.06,-0.2 0.13,-0.41 0.19,-0.61 v -0.04 A 19.2049,18.8671 0 0 1 19.12,87.08 l 2.67,4.45 a 2.83672,2.78683 -180 0 0 5.08,-0.38 l 0.85,-2.1 a 15.6807,15.4049 0 0 1 1.44,0.78 l 0.15,0.08 c 0.16,0.11 0.32,0.21 0.48,0.32 0.29,0.18 0.57,0.37 0.84,0.57 0.36,0.26 0.72,0.54 1.05,0.83 0.17,0.14 0.32,0.29 0.5,0.44 a 19.0218,18.6872 0 0 1 6.02,11.32 19.8924,19.5425 0 0 1 0.16,1.78 v 0.49 a 1.61272,1.58436 0 0 1 0.02,0.27 z"
   class="st1"
   id="path18"
   inkscape:connector-curvature="0"
   style="fill:url(#grad0-6);stroke:none;stroke-width:34;stroke-linecap:butt" />
				</g>
				<g
   id="group20512-7"
   transform="translate(9.98497,-16.9791)">
					<title
   id="title21">Sheet.20512</title>
					<g
   id="shape20513-8"
   transform="translate(2.24539,-1.76807)">
						<title
   id="title23">Sheet.20513</title>
						<path
   d="m 21.39,124.06 -5.98,-10.28 -0.6,0.34 0.49,-0.36 -6.77,-9.45 -1.24,0.88 6,8.38 -13.29,1.07 0.13,1.52 13.16,-1.08 -4.37,7.13 1.32,0.78 4.48,-7.34 5.34,9.15 z"
   class="st2"
   id="path25"
   inkscape:connector-curvature="0"
   style="fill:#ffffff;fill-opacity:0.47999998;stroke:none;stroke-width:34;stroke-linecap:butt" />
					</g>
					<g
   id="shape20514-10">
						<title
   id="title28">Sheet.20514</title>
						<path
   d="m 23.02,120.13 h -0.01 a 2.82387,2.77421 -180 0 0 -0.61,0.05 2.74998,2.70162 -180 0 0 -2.18,2.61 v 0.05 a 2.78211,2.73318 -180 1 0 2.8,-2.71 z m -9.35,-0.86 a 2.33877,2.29764 -180 0 0 -1.39,-0.64 1.46816,1.44233 -180 0 0 -0.27,-0.02 H 12 a 2.3966,2.35445 -180 0 0 -2.41,2.33 v 0.02 a 2.40945,2.36707 -180 1 0 4.08,-1.69 z M 4.42,112.7 a 2.38696,2.34498 -180 1 0 0.28,1.11 2.38375,2.34182 -180 0 0 -0.28,-1.11 z m 5.94,-12.52 h -0.09 a 2.9826091,2.9301482 -180 0 0 0.06,5.86 3.06482,3.01091 -180 0 0 0.96,-0.15 2.99735,2.94464 -180 0 0 2.02,-2.76 2.97808,2.9257 -180 0 0 -2.95,-2.95 z m 6.7,8.89 a 3.5949,3.53167 -180 0 0 -1.41,0.27 3.60775,3.54429 -180 0 0 -2.12,2.62 3.1612,3.1056 -180 0 0 -0.06,0.53 v 0.09 a 3.63345,3.56954 -180 0 0 1.01,2.45 3.55313,3.49064 -180 0 0 1.28,0.84 3.61417,3.55061 -180 0 0 1.31,0.24 3.68485,3.62004 -180 0 0 1.12,-0.17 3.59169,3.52851 -180 0 0 -1.12,-6.88 z"
   class="st3"
   id="path30"
   inkscape:connector-curvature="0"
   style="fill:#ffffff;fill-opacity:0.8;stroke:none;stroke-width:34;stroke-linecap:butt" />
					</g>
				</g>
				<g
   id="shape20515-12">
					<title
   id="title34">Sheet.20515</title>
					<path
   d="m 48.19,104.33 a 1.48743,1.46127 0 0 1 -1.96,0.91 l -1.74,-0.68 A 1.48101,1.45496 0 0 1 43.65,102.74 20.5863,20.2242 -180 0 0 31.9,77.84 l -0.5,1.23 -0.88,2.17 a 1.48101,1.45496 0 0 1 -2.65,0.2 l -2.23,-3.71 -2.87,-4.79 a 1.48101,1.45496 0 0 1 0.88,-2.13 l 9.66,-2.7 a 1.48422,1.45812 0 0 1 1.78,1.95 l -1.39,3.4 a 25.4084,24.9615 0 0 1 14.49,30.87 z m -23.99,17.79 -9.66,2.68 a 1.4778,1.4518 0 0 1 -1.78,-1.93 l 1.39,-3.41 A 25.402,24.9552 0 0 1 0,88.73 1.49065,1.46443 0 0 1 1.96,87.82 l 1.7,0.67 a 1.50028,1.4739 0 0 1 0.88,1.81 20.5895,20.2274 -180 0 0 11.4,24.78 l 0.51,-1.23 0.87,-2.16 a 1.48101,1.45496 0 0 1 2.66,-0.19 l 2.29,3.82 2.8,4.67 a 1.48101,1.45496 0 0 1 -0.87,2.13 z"
   class="st4"
   id="path36"
   inkscape:connector-curvature="0"
   style="fill:#0078d4;stroke:none;stroke-width:34;stroke-linecap:butt" />
				</g>
			</g>
		</g>
	</g>
</svg>

<?xml version="1.0" encoding="UTF-8" standalone="no"?>
<!DOCTYPE svg PUBLIC "-//W3C//DTD SVG 1.1//EN" "http://www.w3.org/Graphics/SVG/1.1/DTD/svg11.dtd">
<!-- Generated by Microsoft Visio, SVG Export IoT Hub Update.svg Page-1 -->
<svg xmlns="http://www.w3.org/2000/svg" xmlns:xlink="http://www.w3.org/1999/xlink" xmlns:ev="http://www.w3.org/2001/xml-events"
		width="1.64892in" height="1.7334in" viewBox="0 0 118.722 124.805" xml:space="preserve" color-interpolation-filters="sRGB"
		class="st5">
	<style type="text/css">
	<![CDATA[
		.st1 {fill:url(#grad0-6);stroke:none;stroke-linecap:butt;stroke-width:34}
		.st2 {fill:#ffffff;fill-opacity:0.48;stroke:none;stroke-linecap:butt;stroke-width:34}
		.st3 {fill:#ffffff;fill-opacity:0.8;stroke:none;stroke-linecap:butt;stroke-width:34}
		.st4 {fill:#0078d4;stroke:none;stroke-linecap:butt;stroke-width:34}
		.st5 {fill:none;fill-rule:evenodd;font-size:12px;overflow:visible;stroke-linecap:square;stroke-miterlimit:3}
	]]>
	</style>

	<defs id="Patterns_And_Gradients">
		<linearGradient id="grad0-6" x1="0" y1="0" x2="1" y2="0" gradientTransform="rotate(90 0.5 0.5)">
			<stop offset="0" stop-color="#50e6ff" stop-opacity="1"/>
			<stop offset="0.95" stop-color="#32bedd" stop-opacity="1"/>
		</linearGradient>
	</defs>
	<g>
		<title>Page-1</title>
		<g id="group20054-1" transform="translate(35.2663,-34.0568)">
			<title>IoT Hub Update.20054</title>
			<g id="group20055-2">
				<title>Sheet.20055</title>
				<g id="shape20056-3" transform="translate(4.91206,-9.40832)">
					<title>Sheet.20056</title>
					<path d="M38.38 105.93 L38.38 106.42 A19.2017 18.864 0 0 1 19.18 124.8 L18.98 124.8 L16.23 120.21 A2.79817 2.74896
								 -180 0 0 13.79 118.84 A2.82709 2.77736 -180 0 0 11.15 120.59 L10.31 122.66 C9.99 122.49 9.67 122.31
								 9.35 122.13 L9.06 121.96 A5.52246 5.42533 0 0 1 8.67 121.72 L8.3 121.48 L8.05 121.3 L7.79 121.11
								 L7.64 121 L7.21 120.68 A12.33 12.1131 0 0 1 6.77 120.33 L6.4 120.01 a0.202394 0.198834 0 0 1 -0.0706772
								 -0.0820584 A14.0519 13.8048 0 0 1 5.62 119.27 L5.25 118.9 a0.26022 0.255644 0 0 1 -0.0514016 -0.0504975
								 A11.5654 11.3619 0 0 1 4.56 118.13 C4.44 118 4.33 117.86 4.23 117.73 C4.14 117.6 4.01 117.46 3.91
								 117.32 C3.81 117.18 3.7 117.05 3.59 116.91 C3.48 116.78 3.39 116.63 3.27 116.48 C3.15 116.33 3.08
								 116.19 2.98 116.04 A2.69537 2.64796 0 0 1 2.82 115.79 A7.92869 7.78924 0 0 1 2.32 114.93 C2.24 114.8
								 2.17 114.66 2.09 114.52 A12.8375 12.6118 0 0 1 1.7 113.72 C1.64 113.57 1.57 113.43 1.5 113.28 C1.44
								 113.12 1.36 112.96 1.3 112.79 C1.24 112.63 1.17 112.48 1.12 112.31 C1.07 112.15 1.02 112.06 0.98
								 111.92 C0.94 111.79 0.91 111.73 0.88 111.63 C0.85 111.53 0.81 111.4 0.78 111.29 A10.6915 10.5035
								 0 0 1 0.63 110.78 L0.49 110.26 A15.806 15.528 0 0 1 0.38 109.74 A19.1599 18.8229 0 0 1 0.02 107.08
								 C0.02 106.93 0 106.76 0 106.62 L0 105.93 A19.131 18.7945 0 0 1 0.23 102.96 C0.26 102.73 0.31 102.49
								 0.35 102.25 C0.4 102.01 0.44 101.87 0.48 101.68 A2.07213 2.03568 0 0 1 0.55 101.41 C0.59 101.22
								 0.64 101.02 0.7 100.82 L0.7 100.77 C0.76 100.57 0.83 100.36 0.89 100.16 L0.89 100.12 A19.2049 18.8671
								 0 0 1 19.12 87.08 L21.79 91.53 A2.83672 2.78683 -180 0 0 26.87 91.15 L27.72 89.05 A15.6807 15.4049
								 0 0 1 29.16 89.83 L29.31 89.91 C29.47 90.02 29.63 90.12 29.79 90.23 C30.08 90.41 30.36 90.6 30.63
								 90.8 C30.99 91.06 31.35 91.34 31.68 91.63 C31.85 91.77 32 91.92 32.18 92.07 A19.0218 18.6872 0 0
								 1 38.2 103.39 A19.8924 19.5425 0 0 1 38.36 105.17 L38.36 105.66 A1.61272 1.58436 0 0 1 38.38 105.93
								 Z" class="st1"/>
				</g>
				<g id="group20057-7" transform="translate(9.98497,-16.9791)">
					<title>Sheet.20057</title>
					<g id="shape20058-8" transform="translate(2.24539,-1.76807)">
						<title>Sheet.20058</title>
						<path d="M21.39 124.06 L15.41 113.78 L14.81 114.12 L15.3 113.76 L8.53 104.31 L7.29 105.19 L13.29 113.57 L0
									 114.64 L0.13 116.16 L13.29 115.08 L8.92 122.21 L10.24 122.99 L14.72 115.65 L20.06 124.8 L21.39
									 124.06 Z" class="st2"/>
					</g>
					<g id="shape20059-10">
						<title>Sheet.20059</title>
						<path d="M23.02 120.13 L23.01 120.13 A2.82387 2.77421 -180 0 0 22.4 120.18 A2.74998 2.70162 -180 0 0 20.22
									 122.79 L20.22 122.84 A2.78211 2.73318 -180 1 0 23.02 120.13 ZM13.67 119.27 A2.33877 2.29764
									 -180 0 0 12.28 118.63 A1.46816 1.44233 -180 0 0 12.01 118.61 L12 118.61 A2.3966 2.35445 -180
									 0 0 9.59 120.94 L9.59 120.96 A2.40945 2.36707 -180 1 0 13.67 119.27 ZM4.42 112.7 A2.38696 2.34498
									 -180 1 0 4.7 113.81 A2.38375 2.34182 -180 0 0 4.42 112.7 ZM10.36 100.18 L10.27 100.18 A2.98142
									 2.92898 -180 0 0 10.33 106.04 A3.06482 3.01091 -180 0 0 11.29 105.89 A2.99735 2.94464 -180 0
									 0 13.31 103.13 A2.97808 2.9257 -180 0 0 10.36 100.18 ZM17.06 109.07 A3.5949 3.53167 -180 0 0
									 15.65 109.34 A3.60775 3.54429 -180 0 0 13.53 111.96 A3.1612 3.1056 -180 0 0 13.47 112.49 L13.47
									 112.58 A3.63345 3.56954 -180 0 0 14.48 115.03 A3.55313 3.49064 -180 0 0 15.76 115.87 A3.61417
									 3.55061 -180 0 0 17.07 116.11 A3.68485 3.62004 -180 0 0 18.19 115.94 A3.59169 3.52851 -180 0
									 0 17.07 109.06 L17.06 109.07 Z" class="st3"/>
					</g>
				</g>
				<g id="shape20060-12">
					<title>Sheet.20060</title>
					<path d="M48.19 104.33 A1.48743 1.46127 0 0 1 46.23 105.24 L44.49 104.56 A1.48101 1.45496 0 0 1 43.65 102.74
								 A20.5863 20.2242 -180 0 0 31.9 77.84 L31.4 79.07 L30.52 81.24 A1.48101 1.45496 0 0 1 27.87 81.44
								 L25.64 77.73 L22.77 72.94 A1.48101 1.45496 0 0 1 23.65 70.81 L33.31 68.11 A1.48422 1.45812 0 0 1
								 35.09 70.06 L33.7 73.46 A25.4084 24.9615 0 0 1 48.19 104.33 ZM24.2 122.12 L14.54 124.8 A1.4778 1.4518
								 0 0 1 12.76 122.87 L14.15 119.46 A25.402 24.9552 0 0 1 0 88.73 A1.49065 1.46443 0 0 1 1.96 87.82
								 L3.66 88.49 A1.50028 1.4739 0 0 1 4.54 90.3 A20.5895 20.2274 -180 0 0 15.94 115.08 L16.45 113.85
								 L17.32 111.69 A1.48101 1.45496 0 0 1 19.98 111.5 L22.27 115.32 L25.07 119.99 A1.48101 1.45496 0
								 0 1 24.2 122.12 Z" class="st4"/>
				</g>
			</g>
		</g>
	</g>
</svg>
